src/components/Sprite/svg/mud.svg

<?xml version="1.0" encoding="UTF-8" standalone="no"?>
<svg
   xmlns:dc="http://purl.org/dc/elements/1.1/"
   xmlns:cc="http://creativecommons.org/ns#"
   xmlns:rdf="http://www.w3.org/1999/02/22-rdf-syntax-ns#"
   xmlns:svg="http://www.w3.org/2000/svg"
   xmlns="http://www.w3.org/2000/svg"
   xmlns:sodipodi="http://sodipodi.sourceforge.net/DTD/sodipodi-0.dtd"
   xmlns:inkscape="http://www.inkscape.org/namespaces/inkscape"
   sodipodi:docname="mud.svg"
   inkscape:version="1.0 (4035a4f, 2020-05-01)"
   id="svg8"
   version="1.1"
   viewBox="0 0 128 128"
   height="128"
   width="128">
  <defs
     id="defs2" />
  <sodipodi:namedview
     inkscape:bbox-nodes="true"
     inkscape:bbox-paths="true"
     inkscape:snap-bbox="true"
     inkscape:window-maximized="0"
     inkscape:window-y="25"
     inkscape:window-x="0"
     inkscape:window-height="1359"
     inkscape:window-width="2560"
     units="px"
     showgrid="true"
     inkscape:document-rotation="0"
     inkscape:current-layer="layer1"
     inkscape:document-units="px"
     inkscape:cy="67.956665"
     inkscape:cx="68.447327"
     inkscape:zoom="7.542801"
     inkscape:pageshadow="2"
     inkscape:pageopacity="0.0"
     borderopacity="1.0"
     bordercolor="#666666"
     pagecolor="#ffffff"
     id="base">
    <inkscape:grid
       empspacing="4"
       id="grid10"
       type="xygrid" />
    <inkscape:grid
       empspacing="2"
       spacingy="8"
       spacingx="8"
       id="grid12"
       type="xygrid" />
  </sodipodi:namedview>
  <metadata
     id="metadata5">
    <rdf:RDF>
      <cc:Work
         rdf:about="">
        <dc:format>image/svg+xml</dc:format>
        <dc:type
           rdf:resource="http://purl.org/dc/dcmitype/StillImage" />
        <dc:title></dc:title>
      </cc:Work>
    </rdf:RDF>
  </metadata>
  <g
     id="layer1"
     inkscape:groupmode="layer"
     inkscape:label="Layer 1">
    <path
       sodipodi:nodetypes="aaaaaaaaaaaaaaaaaaaaaaaaaaaaaaaaa"
       d="M 4,4 C 7.5355339,0.46446609 14.042386,4.649664 19,4 24.130858,3.3276336 28.825275,0 34,0 39.174725,0 44,2.6666667 49,4 54,5.3333333 58.825275,8 64,8 69.174725,8 74,5.3333333 79,4 84,2.6666667 88.825275,0 94,0 99.174725,0 103.86914,3.3276336 109,4 113.95761,4.649664 120.46447,0.46446609 124,4 127.53553,7.5355339 124.64966,14.042386 124,19 123.32763,24.130858 120,28.825275 120,34 120,39.174725 124,43.825275 124,49 124,54.174725 120,58.825275 120,64 120,69.174725 122.66667,74 124,79 125.33333,84 128,88.825275 128,94 128,99.174725 124.67237,103.86914 124,109 123.35034,113.95761 127.53553,120.46447 124,124 120.46447,127.53553 113.95761,124.64966 109,124 103.86914,123.32763 99.174725,120 94,120 88.825275,120 84,122.66667 79,124 74,125.33333 69.174725,128 64,128 58.825275,128 54,125.33333 49,124 44,122.66667 39.174725,120 34,120 28.825275,120 24.130858,123.32763 19,124 14.042386,124.64966 7.5355339,127.53553 4,124 0.46446609,120.46447 3.350336,113.95761 4,109 4.6723664,103.86914 8,99.174725 8,94 8,88.825275 5.3333333,84 4,79 2.6666667,74 0,69.174725 0,64 0,58.825275 4,54.174725 4,49 4,43.825275 0,39.174725 0,34 0,28.825275 3.3276336,24.130858 4,19 4.649664,14.042386 0.46446609,7.5355339 4,4 Z"
       style="fill:#8d6e63;stroke:none;stroke-width:8;stroke-linecap:round;stroke-linejoin:round;stroke-miterlimit:4;stroke-dasharray:none"
       id="rect1146" />
    <path
       d="M 52,36 A 16,16 0 0 1 36,52 16,16 0 0 1 20,36 16,16 0 0 1 36,20 16,16 0 0 1 52,36 Z"
       style="fill:#6d4c41;stroke:none;stroke-width:8;stroke-linecap:round;stroke-linejoin:round;stroke-miterlimit:4;stroke-dasharray:none"
       id="path1149" />
    <path
       d="M 104,64 A 12,12 0 0 1 92,76 12,12 0 0 1 80,64 12,12 0 0 1 92,52 12,12 0 0 1 104,64"
       style="fill:#6d4c41;stroke:none;stroke-width:6;stroke-linecap:round;stroke-linejoin:round;stroke-miterlimit:4;stroke-dasharray:none"
       id="circle1151" />
    <path
       d="M 52,96 A 8,8 0 0 1 44,104 8,8 0 0 1 36,96 8,8 0 0 1 44,88 8,8 0 0 1 52,96"
       style="fill:#6d4c41;stroke:none;stroke-width:4;stroke-linecap:round;stroke-linejoin:round;stroke-miterlimit:4;stroke-dasharray:none"
       id="circle1153" />
  </g>
</svg>

<svg xmlns="http://www.w3.org/2000/svg" viewBox="0 0 128 128">
    <path fill="#8d6e63" d="M4 4c3.536-3.536 10.042.65 15 0 5.13-.672 9.825-4 15-4 5.175 0 10 2.667 15 4 5 1.333 9.825 4 15 4 5.175 0 10-2.667 15-4 5-1.333 9.825-4 15-4 5.175 0 9.87 3.328 15 4 4.958.65 11.464-3.536 15 0 3.536 3.536.65 10.042 0 15-.672 5.13-4 9.825-4 15 0 5.175 4 9.825 4 15 0 5.175-4 9.825-4 15 0 5.175 2.667 10 4 15 1.333 5 4 9.825 4 15 0 5.175-3.328 9.87-4 15-.65 4.958 3.536 11.464 0 15-3.536 3.536-10.042.65-15 0-5.13-.672-9.825-4-15-4-5.175 0-10 2.667-15 4-5 1.333-9.825 4-15 4-5.175 0-10-2.667-15-4-5-1.333-9.825-4-15-4-5.175 0-9.87 3.328-15 4-4.958.65-11.464 3.536-15 0-3.536-3.536-.65-10.042 0-15 .672-5.13 4-9.825 4-15 0-5.175-2.667-10-4-15-1.333-5-4-9.825-4-15 0-5.175 4-9.825 4-15 0-5.175-4-9.825-4-15 0-5.175 3.328-9.87 4-15C4.65 14.042.464 7.536 4 4z"/>
    <path fill="#6d4c41" d="M52 36a16 16 0 01-16 16 16 16 0 01-16-16 16 16 0 0116-16 16 16 0 0116 16zm52 28a12 12 0 01-12 12 12 12 0 01-12-12 12 12 0 0112-12 12 12 0 0112 12M52 96a8 8 0 01-8 8 8 8 0 01-8-8 8 8 0 018-8 8 8 0 018 8"/>
</svg>
